icon-svg/tesla-defrost.svg

<svg xmlns="http://www.w3.org/2000/svg" viewBox="0 0 24 24"><path fill="#44739e" d="M11.171 5.62c.043.045.091.1.14.156l.078.076c.043.056.086.1.116.137v.012a1.8 1.8 0 0 1 .346.607 1.4 1.4 0 0 1 .077.552 1.7 1.7 0 0 1-.272.926 2.4 2.4 0 0 1-.38.483c-.152.136-.127.3.054.425a.65.65 0 0 0 .429.111.5.5 0 0 0 .35-.127 2.55 2.55 0 0 0 .866-1.828 2 2 0 0 0-.066-.471 2 2 0 0 0-.171-.499q-.002-.011-.01-.023a2.5 2.5 0 0 0-.485-.679 2 2 0 0 0-.168-.187h-.013a1.9 1.9 0 0 1-.557-1.317 1.96 1.96 0 0 1 .661-1.413c.175-.162.157-.289-.05-.43a.67.67 0 0 0-.424-.13.55.55 0 0 0-.369.141 2.7 2.7 0 0 0-.765 1.246 2.2 2.2 0 0 0-.082.572 2 2 0 0 0 .03.3 2.55 2.55 0 0 0 .665 1.36m-3.431.034c.049.052.1.1.139.153l.078.086a1 1 0 0 0 .079.081H8.03c.006 0 .013 0 .018.01a2 2 0 0 1 .363.622 1.5 1.5 0 0 1 .09.594 1.94 1.94 0 0 1-.647 1.4c-.169.163-.157.284.049.421a.2.2 0 0 1 .054.05.62.62 0 0 0 .375.072.5.5 0 0 0 .357-.132A2.4 2.4 0 0 0 9.535 7.2a2.5 2.5 0 0 0-.049-.511 3 3 0 0 0-.127-.343c-.025-.065-.044-.133-.07-.193a2.8 2.8 0 0 0-.467-.643 2 2 0 0 0-.169-.187c0-.006-.007-.006-.007-.006-.029-.032-.051-.066-.078-.1a2 2 0 0 1-.367-.616 1.8 1.8 0 0 1-.117-.6 1.7 1.7 0 0 1 .117-.585 2 2 0 0 1 .229-.451 2.4 2.4 0 0 1 .318-.379c.144-.143.12-.3-.062-.426a.62.62 0 0 0-.416-.117.58.58 0 0 0-.376.137 2.58 2.58 0 0 0-.843 1.821 2.34 2.34 0 0 0 .435 1.329 3 3 0 0 0 .254.324m6.871-.035q.107.128.204.233v.006l.032.034a1 1 0 0 1 .073.091h.006l.017.026a1.8 1.8 0 0 1 .334.587h.006a1.8 1.8 0 0 1 .084.553 1.95 1.95 0 0 1-.659 1.412c-.168.173-.151.284.061.427a.3.3 0 0 1 .041.04.62.62 0 0 0 .376.076.5.5 0 0 0 .375-.137 2.5 2.5 0 0 0 .841-1.818 3 3 0 0 0-.049-.466h.006s-.006-.01-.006-.021a2.4 2.4 0 0 0-.194-.515h-.006a2.5 2.5 0 0 0-.478-.679l-.175-.2a1.74 1.74 0 0 1-.55-1.307 1.8 1.8 0 0 1 .256-.9 2.3 2.3 0 0 1 .391-.509c.169-.162.152-.289-.055-.43a.66.66 0 0 0-.424-.121.57.57 0 0 0-.357.141 3 3 0 0 0-.431.517c-.013.018-.021.038-.034.057a2.2 2.2 0 0 0-.361 1.085c0 .053-.015.1-.014.156a2.1 2.1 0 0 0 .146.8 2.7 2.7 0 0 0 .544.862m5.375 8.753a.89.89 0 0 0-.071-.847c-.217-.418-1.725-.521-1.657-.026.027.2.081.335-.166.359a2 2 0 0 1-.111-.255l-.427-1.312a2.14 2.14 0 0 0-1.034-1.212l-.3-.163a3.14 3.14 0 0 0-1.481-.369H9.264a3.14 3.14 0 0 0-1.481.369l-.3.163a2.14 2.14 0 0 0-1.034 1.212l-.43 1.308a2 2 0 0 1-.11.255c-.248-.024-.194-.163-.167-.359.068-.495-1.44-.392-1.657.026a.89.89 0 0 0-.071.847 1.74 1.74 0 0 0 1.387.231l-.87 1.063a1.7 1.7 0 0 0-.466 1.176l.024 4.324a.873.873 0 0 0 .9.838h1.323a.4.4 0 0 0 .417-.4l-.023-.975h10.593l-.023.975a.4.4 0 0 0 .417.4h1.324a.873.873 0 0 0 .9-.838l.024-4.324a1.7 1.7 0 0 0-.466-1.176l-.876-1.063a1.74 1.74 0 0 0 1.387-.227M7.628 17.118H5.161c-.11 0-.337-.05-.337-.382l.167-.865c.057-.3.65-.283.913-.126l1.827 1.005a.2.2 0 0 1-.103.368m-.858-2.877a.1.1 0 0 1-.1-.1v-.363A2.566 2.566 0 0 1 9.314 11.3h5.372a2.566 2.566 0 0 1 2.645 2.479v.363a.1.1 0 0 1-.1.1Zm12.239 1.63.167.865c0 .332-.227.382-.337.382h-2.467a.2.2 0 0 1-.1-.368l1.827-1.005c.26-.157.853-.176.91.126"/></svg>

<?xml version="1.0" encoding="UTF-8"?>
<svg width="24px" fill="#44739e" height="24px" viewBox="0 0 24 24" version="1.1" xmlns="http://www.w3.org/2000/svg" xmlns:xlink="http://www.w3.org/1999/xlink">
            <path d="m 11.171,5.619 c 0.043,0.045 0.091,0.1 0.14,0.156 l 0.078,0.076 c 0.043,0.056 0.086,0.1 0.116,0.137 0,0.006 0,0.006 0,0.01 V 6 a 1.836,1.836 0 0 1 0.346,0.608 v 0 a 1.363,1.363 0 0 1 0.077,0.552 1.681,1.681 0 0 1 -0.272,0.926 2.383,2.383 0 0 1 -0.38,0.483 c -0.152,0.136 -0.127,0.3 0.054,0.425 a 0.647,0.647 0 0 0 0.429,0.111 0.493,0.493 0 0 0 0.35,-0.127 v 0 A 2.549,2.549 0 0 0 12.975,7.15 2,2 0 0 0 12.909,6.679 v 0 a 1.961,1.961 0 0 0 -0.171,-0.5 c 0,-0.007 -0.006,-0.016 -0.01,-0.023 v 0 A 2.506,2.506 0 0 0 12.243,5.477 1.774,1.774 0 0 0 12.075,5.29 a 0.005,0.005 0 0 0 -0.006,0 H 12.062 A 1.9,1.9 0 0 1 11.505,3.973 1.96,1.96 0 0 1 12.166,2.56 C 12.341,2.398 12.323,2.271 12.116,2.13 A 0.665,0.665 0 0 0 11.692,2 a 0.551,0.551 0 0 0 -0.369,0.141 2.718,2.718 0 0 0 -0.765,1.246 2.239,2.239 0 0 0 -0.082,0.572 2.262,2.262 0 0 0 0.03,0.3 2.554,2.554 0 0 0 0.665,1.36 z M 7.739,5.653 c 0.049,0.052 0.1,0.1 0.139,0.153 L 7.956,5.892 A 0.777,0.777 0 0 0 8.035,5.973 H 8.029 c 0.006,0 0.013,0 0.018,0.01 A 1.992,1.992 0 0 1 8.41,6.606 v 0 A 1.506,1.506 0 0 1 8.5,7.2 1.939,1.939 0 0 1 7.853,8.6 C 7.684,8.763 7.696,8.884 7.902,9.021 a 0.155,0.155 0 0 1 0.054,0.05 0.622,0.622 0 0 0 0.375,0.072 0.514,0.514 0 0 0 0.357,-0.132 v 0 A 2.413,2.413 0 0 0 9.535,7.2 2.487,2.487 0 0 0 9.486,6.689 3.408,3.408 0 0 0 9.359,6.346 C 9.334,6.281 9.314,6.212 9.288,6.152 A 2.8,2.8 0 0 0 8.821,5.509 2.41,2.41 0 0 0 8.652,5.322 v 0 C 8.652,5.316 8.645,5.316 8.645,5.316 8.616,5.284 8.594,5.25 8.567,5.216 A 2.022,2.022 0 0 1 8.2,4.6 1.762,1.762 0 0 1 8.083,4 1.73,1.73 0 0 1 8.2,3.415 1.977,1.977 0 0 1 8.429,2.964 2.413,2.413 0 0 1 8.747,2.585 C 8.891,2.442 8.867,2.285 8.685,2.159 A 0.624,0.624 0 0 0 8.269,2.042 0.577,0.577 0 0 0 7.893,2.179 2.581,2.581 0 0 0 7.05,4 2.336,2.336 0 0 0 7.485,5.329 2.663,2.663 0 0 0 7.739,5.653 Z m 6.872,-0.035 c 0.073,0.086 0.139,0.162 0.205,0.233 v 0.006 l 0.032,0.034 a 0.633,0.633 0 0 1 0.073,0.091 h 0.006 a 0.146,0.146 0 0 1 0.017,0.026 1.8,1.8 0 0 1 0.334,0.588 h 0.006 a 1.813,1.813 0 0 1 0.084,0.553 1.95,1.95 0 0 1 -0.659,1.412 C 14.54,8.734 14.557,8.845 14.77,8.988 a 0.261,0.261 0 0 1 0.041,0.04 0.624,0.624 0 0 0 0.376,0.076 0.492,0.492 0 0 0 0.375,-0.137 2.51,2.51 0 0 0 0.841,-1.818 3.057,3.057 0 0 0 -0.049,-0.466 h 0.006 c 0,0 -0.006,-0.01 -0.006,-0.021 v 0 A 2.426,2.426 0 0 0 16.16,6.146 v 0 H 16.154 A 2.479,2.479 0 0 0 15.676,5.467 l -0.175,-0.2 v 0 A 1.736,1.736 0 0 1 14.951,3.96 1.777,1.777 0 0 1 15.207,3.06 2.309,2.309 0 0 1 15.598,2.551 C 15.767,2.389 15.75,2.262 15.543,2.121 A 0.656,0.656 0 0 0 15.119,2 0.57,0.57 0 0 0 14.762,2.141 3.151,3.151 0 0 0 14.33,2.658 C 14.317,2.676 14.309,2.696 14.296,2.715 A 2.184,2.184 0 0 0 13.935,3.8 c 0,0.053 -0.015,0.1 -0.014,0.156 a 2.084,2.084 0 0 0 0.146,0.8 2.687,2.687 0 0 0 0.544,0.862 z m 5.376,8.755 a 0.89,0.89 0 0 0 -0.071,-0.847 c -0.217,-0.418 -1.725,-0.521 -1.657,-0.026 0.027,0.2 0.081,0.335 -0.166,0.359 a 2.209,2.209 0 0 1 -0.111,-0.255 l -0.427,-1.312 a 2.139,2.139 0 0 0 -1.034,-1.213 l -0.3,-0.163 A 3.138,3.138 0 0 0 14.74,10.547 H 9.263 a 3.138,3.138 0 0 0 -1.481,0.369 l -0.3,0.163 A 2.139,2.139 0 0 0 6.448,12.292 L 6.018,13.6 a 2.39,2.39 0 0 1 -0.11,0.255 C 5.66,13.831 5.714,13.692 5.741,13.496 5.809,13.001 4.301,13.104 4.084,13.522 A 0.89,0.89 0 0 0 4.013,14.369 1.744,1.744 0 0 0 5.4,14.6 l -0.87,1.063 a 1.709,1.709 0 0 0 -0.466,1.176 l 0.024,4.325 a 0.873,0.873 0 0 0 0.9,0.838 h 1.323 a 0.4,0.4 0 0 0 0.417,-0.4 L 6.705,20.627 H 17.3 l -0.023,0.975 a 0.4,0.4 0 0 0 0.417,0.4 h 1.324 a 0.873,0.873 0 0 0 0.9,-0.838 l 0.024,-4.325 A 1.709,1.709 0 0 0 19.476,15.663 L 18.6,14.6 a 1.744,1.744 0 0 0 1.387,-0.227 z M 7.627,17.12 H 5.16 c -0.11,0 -0.337,-0.05 -0.337,-0.383 L 4.99,15.872 c 0.057,-0.3 0.65,-0.283 0.913,-0.126 L 7.73,16.751 A 0.2,0.2 0 0 1 7.627,17.12 Z M 6.769,14.242 a 0.1,0.1 0 0 1 -0.1,-0.1 V 13.779 A 2.566,2.566 0 0 1 9.313,11.3 h 5.374 a 2.566,2.566 0 0 1 2.645,2.48 v 0.363 a 0.1,0.1 0 0 1 -0.1,0.1 H 6.769 Z m 12.241,1.63 0.167,0.865 c 0,0.333 -0.227,0.383 -0.337,0.383 h -2.467 a 0.2,0.2 0 0 1 -0.1,-0.369 L 18.1,15.746 c 0.26,-0.157 0.853,-0.176 0.91,0.126 z"/>

</svg>
